src/icons/services/local-seo.svg

<svg width="52" height="52" viewBox="0 0 52 52" fill="none" xmlns="http://www.w3.org/2000/svg">
<path d="M49.0748 40.8688L39.5686 31.4438C38.5936 30.4688 37.2936 29.9 35.9123 29.9C34.9373 29.9 34.0436 30.1438 33.2311 30.6313L29.0061 26.4063C31.1186 23.725 32.3373 20.3938 32.3373 16.8188C32.3373 12.675 30.7123 8.77505 27.7873 5.85005C24.8623 2.92505 20.9623 1.30005 16.8186 1.30005C12.6748 1.30005 8.7748 2.92505 5.8498 5.85005C2.9248 8.77505 1.2998 12.675 1.2998 16.8188C1.2998 20.9625 2.9248 24.8626 5.8498 27.7875C8.7748 30.7126 12.6748 32.3375 16.8186 32.3375C20.3123 32.3375 23.6436 31.2001 26.4061 29.0063L30.6311 33.2313C30.1436 34.0438 29.8998 34.9375 29.8998 35.9126C29.8998 37.2938 30.4686 38.5938 31.4436 39.5688L40.8686 48.9938C41.8436 49.9688 43.1436 50.5376 44.5248 50.5376C45.9061 50.5376 47.2061 49.9688 48.1811 48.9938L49.0748 48.1001C50.0498 47.125 50.6186 45.8251 50.6186 44.4438C50.6186 43.1438 50.0498 41.8438 49.0748 40.8688ZM8.53105 25.2688C6.3373 23.075 5.0373 20.0688 5.0373 16.9C5.0373 13.7313 6.25605 10.8063 8.53105 8.5313C10.8061 6.2563 13.7311 5.03755 16.8998 5.03755C20.0686 5.03755 22.9936 6.2563 25.2686 8.5313C27.5436 10.8063 28.7623 13.7313 28.7623 16.9C28.7623 20.0688 27.5436 22.9938 25.2686 25.2688C22.9936 27.5438 20.0686 28.7626 16.8998 28.7626C13.7311 28.7626 10.8061 27.4625 8.53105 25.2688ZM46.4748 45.5813L45.5811 46.4751C45.0123 47.0438 44.0373 47.0438 43.3873 46.4751L33.9623 37.05C33.3936 36.4813 33.3936 35.5063 33.9623 34.8563L34.8561 33.9626C35.1811 33.6376 35.5061 33.5563 35.9123 33.5563C36.3186 33.5563 36.7248 33.7188 36.9686 33.9626L46.3936 43.3876C46.7186 43.7126 46.7998 44.0376 46.7998 44.4438C46.9623 44.9313 46.7998 45.3375 46.4748 45.5813Z" fill="#9D74D3"/>
<path d="M20.0685 10.3187C19.3372 11.05 19.3372 12.1875 20.0685 12.9187C22.0185 14.8687 22.0185 18.1187 20.0685 20.0687C19.3372 20.8 19.3372 21.9375 20.0685 22.6687C20.3935 22.9937 20.881 23.2375 21.3685 23.2375C21.856 23.2375 22.3435 23.075 22.6685 22.6687C24.2935 21.0437 25.1872 18.85 25.1872 16.4937C25.1872 14.1375 24.2935 12.025 22.6685 10.3187C21.9372 9.58745 20.7185 9.58745 20.0685 10.3187Z" fill="#9D74D3"/>
</svg>

<svg xmlns="http://www.w3.org/2000/svg" width="52" height="52" fill="#9d74d3"  ><path d="M49.075 40.869l-9.506-9.425c-.975-.975-2.275-1.544-3.656-1.544-.975 0-1.869.244-2.681.731l-4.225-4.225a15.43 15.43 0 0 0 3.331-9.588c0-4.144-1.625-8.044-4.55-10.969S20.962 1.3 16.819 1.3A15.43 15.43 0 0 0 5.85 5.85C2.925 8.775 1.3 12.675 1.3 16.819s1.625 8.044 4.55 10.969 6.825 4.55 10.969 4.55c3.494 0 6.825-1.137 9.587-3.331l4.225 4.225a5.11 5.11 0 0 0-.731 2.681c0 1.381.569 2.681 1.544 3.656l9.425 9.425c.975.975 2.275 1.544 3.656 1.544s2.681-.569 3.656-1.544l.894-.894c.975-.975 1.544-2.275 1.544-3.656 0-1.3-.569-2.6-1.544-3.575zm-40.544-15.6c-2.194-2.194-3.494-5.2-3.494-8.369s1.219-6.094 3.494-8.369 5.2-3.494 8.369-3.494 6.094 1.219 8.369 3.494 3.494 5.2 3.494 8.369-1.219 6.094-3.494 8.369-5.2 3.494-8.369 3.494-6.094-1.3-8.369-3.494zm37.944 20.313l-.894.894c-.569.569-1.544.569-2.194 0l-9.425-9.425c-.569-.569-.569-1.544 0-2.194l.894-.894c.325-.325.65-.406 1.056-.406s.813.163 1.056.406l9.425 9.425c.325.325.406.65.406 1.056.163.487 0 .894-.325 1.137zM20.069 10.319c-.731.731-.731 1.869 0 2.6 1.95 1.95 1.95 5.2 0 7.15-.731.731-.731 1.869 0 2.6.325.325.813.569 1.3.569s.975-.163 1.3-.569c1.625-1.625 2.519-3.819 2.519-6.175s-.894-4.469-2.519-6.175c-.731-.731-1.95-.731-2.6 0z"/></svg>
